X:874
T:Reel 874
M:4/4
K:Gmaj
L:1/8
ge|dBge dedB|GBdB AGDB|GBdB degb|bagb a2ge|dBge dedB|GBdB A2A2|dBgB gBdc'|bgab g2|ga|bagg ageg|bgef g2ga|bggb d'c'bc'|d'bab g2ga|bggc' agag|bggb a2dc'|bc'd'b c'afa|gedB G2|
